X:2
T:Petite Fleur
C:Sidney Bechet
L:1/4
M:C
I:linebreak $
K:Bb
"D7" D4 | z/ D/^F/A/ (3c e d |"Gm" B4 | z/ D/G/A/ B/A/G/A/ |"A7" =E4 | (3z =E ^F (3G A ^F |
"D7" D4 ||$ E2 ||"D7" D4 | z/ D/^F/A/ (3c e d |"Bb" f4 | (3z d e f/e/ d |"Cm" e4 |
"F7" (3z c d (3e d c |"Bb" d4 |"Eb" (3z B c (3d c B |$"Aø" c ^F c2 |"D7" (3z A B (3c B A |
"Gm" B2 z2 |"C7" (3z G A (3B A G |"A7" A4 | =E4 |"D7" A4 ||$ E2 ||"D7" D4 | z/ D/^F/A/ (3c e d |
"Gm" B4 | z/ D/G/A/ (3B A G |"Aø" A3 c |"D7" B2 A2 |"Gm" G4 ||$"G" z D (3G B d ||"G7" f4 |
(3z d e (3f _a g |"Cm" e4 | z G c d |"F7" e4 | (3z c d e c |"Bb" d4 |"Eb" (3z B c d B |
"Aø" c4 |$"D7" (3z A B c A |"Gm" B4 |"C7" (3z G A (3B A G |"Aø" A2 z c |"D7" B2 A2 |"Gm" G4 |
z4 |]

